X: 1
T:Limerick Lasses -- Reel
M:2/4
L:1/16
R:reel
B:Ryan's Mammoth Collection
Z:Contributed by Ray Davies,  ray:davies99.freeserve.co.uk
K:D
|]"^Segno"vdBAF D2EF|GFGA BEEc|dBAF D2EF|GBAF D2D2|
dBAF D2EF|GFGA BEEc|dBAF D2EF|GBAG FABc|]
dcde f2ed|cdef gBBc|dfga b2ag|faeg fddc|
dcde fded|cdef gfga|bBbB b2ag|faeg fdd2H|]
AdBd AdBd|AdBd ceec|AdBd AdBd|efge fddB|
AdBd AdBd|Adfd ceef|gfec dcBA|Bdce fdd2"^Segno"|]
